apps/service-portal/src/assets/images/retirement.svg

<svg width="138" height="194" viewBox="0 0 138 194" fill="none" xmlns="http://www.w3.org/2000/svg">
<path d="M65.916 83.9629V100.76C65.916 105.958 70.1308 110.179 75.3354 110.179H127.033C132.232 110.179 136.453 105.964 136.453 100.76V83.9629H65.916ZM88.4031 102.708H74.8747V99.0476H88.4031V102.708ZM101.931 94.1169H74.881V90.4562H101.931V94.1169ZM123.211 102.708C119.83 102.708 117.085 99.9628 117.085 96.5823C117.085 93.2018 119.83 90.4562 123.211 90.4562C126.591 90.4562 129.337 93.2018 129.337 96.5823C129.337 99.9628 126.597 102.708 123.211 102.708ZM65.916 74.0019V73.7715C65.916 68.5731 70.1308 64.3521 75.3354 64.3521H127.033C132.232 64.3521 136.453 68.5669 136.453 73.7715V74.0019H65.916ZM26.2649 63.163C26.2649 63.163 37.1722 65.261 39.9115 48.1094C39.9115 48.1094 48.1667 68.5233 38.5917 91.994C38.5917 91.994 52.1138 118.976 38.5917 140.143H67.5596C67.5596 140.143 55.239 161.541 53.7885 170.026H4.79883L15.8369 145.609C15.8369 145.609 10.2587 114.381 16.2167 94.1045C22.1746 73.8275 26.2649 63.163 26.2649 63.163Z" fill="url(#paint0_linear_10070_14298)"/>
<path d="M21.6077 7.78572C23.6638 7.78572 25.3306 6.11891 25.3306 4.06278C25.3306 2.00666 23.6638 0.339844 21.6077 0.339844C19.5516 0.339844 17.8848 2.00666 17.8848 4.06278C17.8848 6.11891 19.5516 7.78572 21.6077 7.78572Z" fill="#0061FF"/>
<path d="M1.65451 175.679C1.51755 175.679 1.38058 175.648 1.24362 175.586C0.776695 175.361 0.583699 174.801 0.814048 174.34L14.8716 145.46C14.635 143.542 13.2653 131.962 12.5805 118.341C11.0615 88.0467 34.775 41.5225 35.0115 41.0555C35.2481 40.5948 35.8147 40.4143 36.2691 40.6509C36.7298 40.8874 36.9104 41.4478 36.6738 41.9085C36.4372 42.3691 12.9478 88.4576 14.442 118.247C15.1828 133.027 16.7393 145.379 16.7579 145.497C16.7828 145.678 16.7517 145.858 16.6708 146.026L2.49497 175.156C2.33311 175.486 2.00315 175.679 1.65451 175.679Z" fill="#6A2EA0"/>
<path d="M45.9869 142.172C45.8624 142.172 45.7379 142.148 45.6134 142.091C45.1402 141.886 44.9286 141.332 45.134 140.859C53.9184 120.775 37.9434 92.747 37.7815 92.4668C37.5263 92.0186 37.6757 91.452 38.1239 91.1905C38.5722 90.9291 39.1387 91.0847 39.4002 91.533C39.4438 91.6077 43.6087 98.8543 46.5908 108.56C49.3612 117.575 51.6523 130.624 46.8461 141.612C46.6904 141.961 46.348 142.172 45.9869 142.172Z" fill="#6A2EA0"/>
<path d="M38.5918 92.9339C38.4922 92.9339 38.3863 92.9152 38.2805 92.8841C37.7949 92.716 37.5397 92.1806 37.7077 91.695C49.6423 57.6718 35.3171 42.282 35.1739 42.1326C34.819 41.7591 34.8253 41.1739 35.1988 40.8128C35.5661 40.4517 36.1576 40.4641 36.5187 40.8314C37.1474 41.4789 51.8213 57.1177 39.4758 92.3113C39.3389 92.6973 38.9778 92.9339 38.5918 92.9339Z" fill="#6A2EA0"/>
<path d="M64.1232 165.799C64.0174 165.799 63.9178 165.78 63.8119 165.743C63.3263 165.568 63.0711 165.039 63.2392 164.554C66.6259 154.96 70.6975 146.593 75.3418 139.682C75.6282 139.253 76.2072 139.141 76.6368 139.427C77.0663 139.713 77.1784 140.292 76.892 140.722C72.3349 147.502 68.3318 155.726 64.9948 165.17C64.8703 165.562 64.5092 165.799 64.1232 165.799Z" fill="#6A2EA0"/>
<path d="M92.431 141.139H53.7883C53.2716 141.139 52.8545 140.722 52.8545 140.206C52.8545 139.689 53.2716 139.272 53.7883 139.272H92.4247C97.8597 139.272 102.274 134.851 102.274 129.423V111.337C102.274 110.82 102.691 110.403 103.208 110.403C103.724 110.403 104.141 110.82 104.141 111.337V129.423C104.148 135.885 98.8932 141.139 92.431 141.139Z" fill="#6A2EA0"/>
<path d="M103.213 65.2858C102.697 65.2858 102.28 64.8687 102.28 64.352V21.8495C102.28 16.4145 97.8593 12.0005 92.4306 12.0005H53.788C48.353 12.0005 43.939 16.4207 43.939 21.8495V59.0602C43.939 59.5769 43.5219 59.994 43.0051 59.994C42.4884 59.994 42.0713 59.5769 42.0713 59.0602V21.8495C42.0713 15.3873 47.3257 10.1328 53.788 10.1328H92.4243C98.8866 10.1328 104.141 15.3873 104.141 21.8495V64.3582C104.147 64.8687 103.73 65.2858 103.213 65.2858Z" fill="#6A2EA0"/>
<path d="M88.714 21.2827H67.1047C66.588 21.2827 66.1709 20.8656 66.1709 20.3489C66.1709 19.8322 66.588 19.415 67.1047 19.415H88.714C89.2307 19.415 89.6478 19.8322 89.6478 20.3489C89.6478 20.8656 89.2307 21.2827 88.714 21.2827Z" fill="#6A2EA0"/>
<path d="M60.0384 21.2827H56.6516C56.1349 21.2827 55.7178 20.8656 55.7178 20.3489C55.7178 19.8322 56.1349 19.415 56.6516 19.415H60.0384C60.5551 19.415 60.9722 19.8322 60.9722 20.3489C60.9722 20.8656 60.5489 21.2827 60.0384 21.2827Z" fill="#6A2EA0"/>
<path d="M136.44 84.8965C135.923 84.8965 135.506 84.4794 135.506 83.9626V73.7712C135.506 69.0958 131.702 65.2857 127.021 65.2857C126.504 65.2857 126.087 64.8685 126.087 64.3518C126.087 63.8351 126.504 63.418 127.021 63.418C132.73 63.418 137.374 68.0623 137.374 73.7712V83.9626C137.374 84.4794 136.957 84.8965 136.44 84.8965Z" fill="#6A2EA0"/>
<path d="M127.027 111.113H75.3288C69.6199 111.113 64.9756 106.468 64.9756 100.759V73.7712C64.9756 68.0623 69.6199 63.418 75.3288 63.418H103.095C103.612 63.418 104.029 63.8351 104.029 64.3518C104.029 64.8685 103.612 65.2857 103.095 65.2857H75.3288C70.6534 65.2857 66.8433 69.0895 66.8433 73.7712V100.759C66.8433 105.435 70.6472 109.245 75.3288 109.245H127.027C131.702 109.245 135.512 105.441 135.512 100.759V96.582C135.512 96.0653 135.929 95.6482 136.446 95.6482C136.963 95.6482 137.38 96.0653 137.38 96.582V100.759C137.374 106.468 132.736 111.113 127.027 111.113Z" fill="#6A2EA0"/>
<path d="M69.4391 170.972H10.9553C10.4386 170.972 10.0215 170.555 10.0215 170.038C10.0215 169.522 10.4386 169.104 10.9553 169.104H69.4391C69.9558 169.104 70.3729 169.522 70.3729 170.038C70.3729 170.555 69.9496 170.972 69.4391 170.972Z" fill="#6A2EA0"/>
<path d="M42.1521 185.802H10.9553C10.4386 185.802 10.0215 185.385 10.0215 184.868C10.0215 184.352 10.4386 183.935 10.9553 183.935H42.1521C42.6688 183.935 43.0859 184.352 43.0859 184.868C43.0859 185.385 42.6626 185.802 42.1521 185.802Z" fill="#6A2EA0"/>
<path d="M42.6067 193.347C37.7382 193.347 33.7725 189.388 33.7725 184.513C33.7725 179.638 37.732 175.679 42.6067 175.679C47.4813 175.679 51.4409 179.638 51.4409 184.513C51.4409 189.388 47.4813 193.347 42.6067 193.347ZM42.6067 177.546C38.7654 177.546 35.6402 180.672 35.6402 184.513C35.6402 188.354 38.7654 191.479 42.6067 191.479C46.4479 191.479 49.5732 188.354 49.5732 184.513C49.5732 180.672 46.4479 177.546 42.6067 177.546Z" fill="#6A2EA0"/>
<path d="M110.703 51.4399C110.187 51.4399 109.77 51.0228 109.77 50.5061V18.5498C109.77 11.0791 103.687 4.9966 96.2164 4.9966H43.6594C43.1427 4.9966 42.7256 4.57948 42.7256 4.06275C42.7256 3.54602 43.1427 3.12891 43.6594 3.12891H96.2226C104.727 3.12891 111.644 10.0456 111.644 18.5498V50.4999C111.637 51.0166 111.22 51.4399 110.703 51.4399Z" fill="#6A2EA0"/>
<path d="M28.481 64.4203C27.6779 64.4203 26.8561 64.302 26.0156 64.0654C25.5176 63.9285 25.2312 63.4117 25.3682 62.9137C25.5051 62.4156 26.0219 62.1293 26.5199 62.2662C28.4436 62.8079 30.1619 62.5837 31.7744 61.5814C37.0226 58.3129 38.9712 48.0468 38.9899 47.9472C39.0833 47.443 39.5689 47.1068 40.0794 47.2001C40.5837 47.2935 40.9198 47.7791 40.8265 48.2896C40.7455 48.7441 38.7097 59.4647 32.758 63.1689C31.4195 64.0032 29.9876 64.4203 28.481 64.4203Z" fill="#6A2EA0"/>
<defs>
<linearGradient id="paint0_linear_10070_14298" x1="4.79634" y1="109.076" x2="136.443" y2="109.076" gradientUnits="userSpaceOnUse">
<stop stop-color="#FF4C84"/>
<stop offset="1" stop-color="#4C90FF"/>
</linearGradient>
</defs>
</svg>

<svg width="138" height="194" fill="none" xmlns="http://www.w3.org/2000/svg"><path d="M65.916 83.963v16.797c0 5.198 4.215 9.419 9.42 9.419h51.697c5.199 0 9.42-4.215 9.42-9.419V83.963H65.916Zm22.487 18.745H74.875v-3.66h13.528v3.66Zm13.528-8.591h-27.05v-3.66h27.05v3.66Zm21.28 8.591a6.129 6.129 0 0 1-6.126-6.126 6.13 6.13 0 0 1 6.126-6.126 6.126 6.126 0 1 1 0 12.252ZM65.916 74.002v-.23c0-5.199 4.215-9.42 9.42-9.42h51.697c5.199 0 9.42 4.215 9.42 9.42v.23H65.916ZM26.265 63.163s10.907 2.098 13.646-15.054c0 0 8.256 20.414-1.32 43.885 0 0 13.523 26.982 0 48.149H67.56s-12.321 21.398-13.772 29.883H4.798l11.039-24.417s-5.578-31.228.38-51.505c5.958-20.276 10.048-30.941 10.048-30.941Z" fill="url(#a)"/><path d="M21.608 7.786a3.723 3.723 0 1 0 0-7.446 3.723 3.723 0 0 0 0 7.446Z" fill="#0061FF"/><path d="M1.655 175.679a.99.99 0 0 1-.411-.093.925.925 0 0 1-.43-1.246l14.058-28.88c-.237-1.918-1.607-13.498-2.291-27.119-1.52-30.294 22.194-76.819 22.43-77.285a.933.933 0 1 1 1.663.852c-.237.461-23.726 46.55-22.232 76.339.74 14.78 2.297 27.132 2.316 27.25a.92.92 0 0 1-.087.529l-14.176 29.13a.933.933 0 0 1-.84.523ZM45.987 142.172a.935.935 0 0 1-.853-1.313c8.784-20.084-7.19-48.112-7.352-48.392a.936.936 0 0 1 .342-1.276.93.93 0 0 1 1.276.342c.044.075 4.209 7.321 7.19 17.027 2.771 9.015 5.062 22.064.256 33.052a.942.942 0 0 1-.86.56Z" fill="#6A2EA0"/><path d="M38.592 92.934c-.1 0-.206-.019-.311-.05a.935.935 0 0 1-.573-1.189c11.934-34.023-2.39-49.413-2.534-49.562a.934.934 0 0 1 .025-1.32.934.934 0 0 1 1.32.018c.628.648 15.302 16.287 2.957 51.48a.935.935 0 0 1-.884.623ZM64.123 165.799a.938.938 0 0 1-.884-1.245c3.387-9.594 7.459-17.961 12.103-24.872a.933.933 0 1 1 1.55 1.04c-4.557 6.78-8.56 15.004-11.897 24.448a.906.906 0 0 1-.872.629Z" fill="#6A2EA0"/><path d="M92.431 141.139H53.788a.932.932 0 1 1 0-1.867h38.637c5.435 0 9.849-4.421 9.849-9.849v-18.086a.933.933 0 1 1 1.867 0v18.086c.007 6.462-5.248 11.716-11.71 11.716ZM103.213 65.286a.932.932 0 0 1-.933-.934V21.849c0-5.434-4.42-9.848-9.85-9.848H53.789c-5.435 0-9.849 4.42-9.849 9.848V59.06a.933.933 0 0 1-.934.934.933.933 0 0 1-.934-.934V21.85c0-6.463 5.255-11.717 11.717-11.717h38.636c6.463 0 11.717 5.254 11.717 11.716v42.51a.922.922 0 0 1-.928.927Z" fill="#6A2EA0"/><path d="M88.714 21.283h-21.61a.933.933 0 1 1 0-1.868h21.61a.933.933 0 1 1 0 1.868ZM60.038 21.283h-3.386a.933.933 0 1 1 0-1.868h3.386a.933.933 0 1 1 0 1.868ZM136.44 84.897a.933.933 0 0 1-.934-.934V73.77c0-4.675-3.804-8.485-8.485-8.485a.933.933 0 1 1 0-1.868c5.709 0 10.353 4.644 10.353 10.353v10.192a.933.933 0 0 1-.934.934ZM127.027 111.113H75.329c-5.71 0-10.353-4.645-10.353-10.354V73.771c0-5.709 4.644-10.353 10.353-10.353h27.766c.517 0 .934.417.934.934a.933.933 0 0 1-.934.934H75.329c-4.676 0-8.486 3.803-8.486 8.485v26.988c0 4.676 3.804 8.486 8.486 8.486h51.698c4.675 0 8.485-3.804 8.485-8.486v-4.177c0-.517.417-.934.934-.934.517 0 .934.417.934.934v4.177c-.006 5.709-4.644 10.354-10.353 10.354ZM69.44 170.972H10.954a.933.933 0 1 1 0-1.868H69.44a.933.933 0 1 1 0 1.868ZM42.152 185.802H10.955a.933.933 0 1 1 0-1.867h31.197a.932.932 0 1 1 0 1.867Z" fill="#6A2EA0"/><path d="M42.607 193.347c-4.869 0-8.834-3.959-8.834-8.834s3.959-8.834 8.834-8.834c4.874 0 8.834 3.959 8.834 8.834s-3.96 8.834-8.834 8.834Zm0-15.801c-3.842 0-6.967 3.126-6.967 6.967a6.974 6.974 0 0 0 6.967 6.966 6.974 6.974 0 0 0 6.966-6.966c0-3.841-3.125-6.967-6.966-6.967ZM110.703 51.44a.932.932 0 0 1-.933-.934V18.55c0-7.47-6.083-13.553-13.554-13.553H43.66a.933.933 0 0 1-.933-.934c0-.517.417-.934.933-.934h52.564c8.504 0 15.421 6.917 15.421 15.42V50.5a.948.948 0 0 1-.941.94ZM28.481 64.42a9.075 9.075 0 0 1-2.465-.355.933.933 0 1 1 .504-1.799c1.924.542 3.642.318 5.254-.685 5.249-3.268 7.197-13.534 7.216-13.634a.935.935 0 0 1 1.837.343c-.081.454-2.117 11.175-8.069 14.879-1.339.834-2.77 1.251-4.277 1.251Z" fill="#6A2EA0"/><defs><linearGradient id="a" x1="4.796" y1="109.076" x2="136.443" y2="109.076" gradientUnits="userSpaceOnUse"><stop stop-color="#FF4C84"/><stop offset="1" stop-color="#4C90FF"/></linearGradient></defs></svg>
